;FLAVOR:Marlin
;TIME:10345
;Filament used: 10.3507m
;Layer height: 0.2
;MINX:76.335
;MINY:102.404
;MINZ:0.24
;MAXX:223.66
;MAXY:197.6
;MAXZ:4.69
;TARGET_MACHINE.NAME:Creality Ender-3 S1 Plus
;Generated with Cura_SteamEngine 5.11.0
; Ender 3 S1 Plus Start G-code
; M413 S0 ; Disable power loss recovery
G92 E0 ; Reset Extruder

; Prep surfaces before auto home for better accuracy
M140 S60
M104 S200

G28 ; Home all axes
G1 Z10.0 F3000 ; Move Z Axis up little to prevent scratching of Heat Bed
G1 X0 Y0

M190 S60
M109 S200

G1 X0.1 Y20 Z0.3 F5000.0 ; Move to start position
G1 X0.1 Y200.0 Z0.3 F1500.0 E15 ; Draw the first line
G1 X0.4 Y200.0 Z0.3 F5000.0 ; Move to side a little
G1 X0.4 Y20 Z0.3 F1500.0 E30 ; Draw the second line
G92 E0 ; Reset Extruder
G1 Z2.0 F3000 ; Move Z Axis up little to prevent scratching of Heat Bed
G1 X5 Y20 Z0.3 F5000.0 ; Move over to prevent blob squish

M82 ;absolute extrusion mode
G92 E0
G92 E0
G1 F2400 E-0.8
;LAYER_COUNT:18
;LAYER:-6
M107
M204 S2000
G0 F9000 X84.617 Y106.206 Z0.24
M204 S500
;TYPE:SUPPORT-INTERFACE
G1 F2400 E0
G1 F1350 X84.976 Y105.935 E0.03591
G1 X86.257 Y105.084 E0.15867
G1 X86.485 Y104.949 E0.17982
G1 X87.845 Y104.222 E0.30292
G1 X88.257 Y104.026 E0.33934
G1 X88.277 Y104.037 E0.34116
G1 X89.523 Y103.514 E0.44903
G1 X89.922 Y103.376 E0.48273
G1 X91.148 Y102.988 E0.58538
G1 X91.165 Y103.002 E0.58713
G1 X91.96 Y102.812 E0.65238
G1 X92.427 Y102.723 E0.69033
G1 X94.024 Y102.487 E0.81919
G1 X95.611 Y102.404 E0.94605
G1 X204.283 Y102.404 E9.62072
G1 X205.586 Y102.46 E9.72482
G1 X205.6 Y102.447 E9.72635
G1 X206.119 Y102.509 E9.76807
G1 X207.521 Y102.711 E9.88114
G1 X207.956 Y102.795 E9.91651
G1 X209.308 Y103.138 E10.02785
G1 X209.766 Y103.276 E10.06603
G1 X211.095 Y103.754 E10.17877
G1 X211.412 Y103.886 E10.20618
G1 X212.785 Y104.541 E10.32761
G1 X213.126 Y104.728 E10.35866
G1 X214.073 Y105.283 E10.44628
G1 X214.982 Y105.905 E10.5342
G1 X215.343 Y106.178 E10.57033
G1 X216.472 Y107.113 E10.68734
G1 X216.734 Y107.356 E10.71587
G1 X217.759 Y108.386 E10.83186
G1 X217.974 Y108.631 E10.85788
G1 X218.908 Y109.771 E10.97552
G1 X219.068 Y109.987 E10.99698
G1 X219.914 Y111.259 E11.11892
G1 X220.052 Y111.486 E11.14013
G1 X220.774 Y112.845 E11.26297
G1 X220.945 Y113.202 E11.29457
G1 X221.486 Y114.535 E11.4094
G1 X221.632 Y114.944 E11.44407
G1 X221.902 Y115.804 E11.51602
G1 X222.189 Y116.983 E11.61288
G1 X222.287 Y117.476 E11.653
G1 X222.491 Y118.884 E11.76657
G1 X222.532 Y119.263 E11.797
G1 X222.592 Y120.697 E11.91157
G1 X222.6 Y179.158 E16.57818
G1 X222.58 Y179.912 E16.63839
G1 X222.552 Y180.432 E16.67996
G1 X222.474 Y181.363 E16.75453
G1 X222.298 Y182.469 E16.84393
G1 X222.189 Y183.011 E16.88806
G1 X221.838 Y184.391 E17.00172
G1 X221.732 Y184.737 E17.03061
G1 X221.279 Y186.001 E17.13779
G1 X221.043 Y186.555 E17.18586
G1 X220.453 Y187.801 E17.29591
G1 X219.705 Y189.086 E17.4146
G1 X219.15 Y189.899 E17.49317
G1 X218.829 Y190.329 E17.53601
G1 X217.941 Y191.41 E17.64768
G1 X217.71 Y191.663 E17.67503
G1 X216.64 Y192.734 E17.79587
G1 X216.438 Y192.917 E17.81763
G1 X215.318 Y193.836 E17.93328
G1 X214.933 Y194.12 E17.97147
G1 X213.654 Y194.976 E18.09432
G1 X212.129 Y195.785 E18.23212
G1 X211.819 Y195.929 E18.2594
G1 X210.611 Y196.43 E18.3638
G1 X210.063 Y196.627 E18.41028
G1 X208.996 Y196.946 E18.49918
G1 X208.379 Y197.105 E18.55004
G1 X206.905 Y197.395 E18.66996
G1 X205.206 Y197.568 E18.80628
G1 X204.114 Y197.6 E18.89348
G1 X95.713 Y197.592 E27.54652
G1 X94.41 Y197.536 E27.65063
G1 X94.396 Y197.549 E27.65215
G1 X93.876 Y197.491 E27.69392
G1 X92.475 Y197.285 E27.80695
G1 X92.039 Y197.201 E27.8424
G1 X90.686 Y196.862 E27.95374
G1 X90.29 Y196.743 E27.98675
G1 X88.763 Y196.19 E28.11638
G1 X87.217 Y195.456 E28.253
G1 X86.131 Y194.845 E28.35246
G1 X85.89 Y194.69 E28.37534
G1 X85.02 Y194.092 E28.45961
G1 X84.514 Y193.703 E28.51055
G1 X83.587 Y192.938 E28.60649
G1 X83.258 Y192.635 E28.6422
G1 X82.24 Y191.609 E28.75757
G1 X82.016 Y191.359 E28.78437
G1 X81.148 Y190.301 E28.89361
G1 X80.892 Y189.957 E28.92783
G1 X80.118 Y188.793 E29.03942
G1 X79.956 Y188.525 E29.06441
G1 X79.25 Y187.208 E29.1837
G1 X79.054 Y186.788 E29.22069
G1 X78.505 Y185.498 E29.3326
G1 X78.519 Y185.478 E29.33455
G1 X78.196 Y184.534 E29.41419
G1 X77.814 Y183.02 E29.53884
G1 X77.734 Y182.652 E29.5689
G1 X77.513 Y181.161 E29.68922
G1 X77.468 Y180.733 E29.72357
G1 X77.405 Y179.303 E29.83783
G1 X77.4 Y120.838 E34.50476
G1 X77.42 Y120.084 E34.56497
G1 X77.448 Y119.56 E34.60685
G1 X77.53 Y118.582 E34.6852
G1 X77.706 Y117.504 E34.77239
G1 X77.811 Y116.98 E34.81505
G1 X78.134 Y115.684 E34.92166
G1 X78.272 Y115.239 E34.95885
G1 X78.71 Y114.02 E35.06225
G1 X78.887 Y113.59 E35.09937
G1 X79.466 Y112.363 E35.20767
G1 X79.655 Y112.006 E35.23991
G1 X80.291 Y110.911 E35.341
G1 X80.843 Y110.107 E35.41885
G1 X81.109 Y109.741 E35.45496
G1 X82.036 Y108.613 E35.57151
G1 X82.267 Y108.356 E35.59909
G1 X83.447 Y107.175 E35.73236
G1 X84.617 Y106.206 E35.85362
M204 S2000
G0 F9000 X84.334 Y106.961
M204 S500
G1 F1350 X174.57 Y197.197 E46.04024
M204 S2000
G1 F2400 E45.24024
G0 F9000 X172.307 Y197.197
M204 S500
G1 F2400 E46.04024
G1 F1350 X83.149 Y108.039 E56.10517
M204 S2000
G1 F2400 E55.30517
G0 F9000 X82.06 Y109.213
M204 S500
G1 F2400 E56.10517
G1 F1350 X170.044 Y197.197 E66.03756
M204 S2000
G1 F2400 E65.23756
G0 F9000 X167.781 Y197.197
M204 S500
G1 F2400 E66.03756
G1 F1350 X81.069 Y110.485 E75.82636
M204 S2000
G1 F2400 E75.02636
G0 F9000 X80.194 Y111.873
M204 S500
G1 F2400 E75.82636
G1 F1350 X165.518 Y197.197 E85.45847
M204 S2000
G1 F2400 E84.65847
G0 F9000 X163.255 Y197.197
M204 S500
G1 F2400 E85.45847
G1 F1350 X79.431 Y113.373 E94.92125
M204 S2000
G1 F2400 E94.12125
G0 F9000 X78.786 Y114.99
M204 S500
G1 F2400 E94.92125
G1 F1350 X160.993 Y197.197 E104.20149
M204 S2000
G1 F2400 E103.40149
G0 F9000 X158.729 Y197.196
M204 S500
G1 F2400 E104.20149
G1 F1350 X78.28 Y116.747 E113.28327
M204 S2000
G1 F2400 E112.48327
G0 F9000 X77.925 Y118.654
M204 S500
G1 F2400 E113.28327
G1 F1350 X156.466 Y197.196 E122.14971
M204 S2000
G1 F2400 E121.34971
G0 F9000 X154.204 Y197.196
M204 S500
G1 F2400 E122.14971
G1 F1350 X77.801 Y120.793 E130.77474
M204 S2000
G1 F2400 E129.97474
G0 F9000 X77.8 Y123.055
M204 S500
G1 F2400 E130.77474
G1 F1350 X151.941 Y197.196 E139.14442
M204 S2000
G1 F2400 E138.34442
G0 F9000 X149.678 Y197.195
M204 S500
G1 F2400 E139.14442
G1 F1350 X77.8 Y125.318 E147.25857
M204 S2000
G1 F2400 E146.45857
G0 F9000 X77.8 Y127.58
M204 S500
G1 F2400 E147.25857
G1 F1350 X147.415 Y197.195 E155.11731
M204 S2000
G1 F2400 E154.31731
G0 F9000 X145.152 Y197.195
M204 S500
G1 F2400 E155.11731
G1 F1350 X77.8 Y129.843 E162.72059
M204 S2000
G1 F2400 E161.92059
G0 F9000 X77.801 Y132.107
M204 S500
G1 F2400 E162.72059
G1 F1350 X142.889 Y197.195 E170.06828
M204 S2000
G1 F2400 E169.26828
G0 F9000 X140.626 Y197.194
M204 S500
G1 F2400 E170.06828
G1 F1350 X77.801 Y134.369 E177.16051
M204 S2000
G1 F2400 E176.36051
G0 F9000 X77.801 Y136.632
M204 S500
G1 F2400 E177.16051
G1 F1350 X138.363 Y197.194 E183.99728
M204 S2000
G1 F2400 E183.19728
G0 F9000 X136.1 Y197.194
M204 S500
G1 F2400 E183.99728
G1 F1350 X77.801 Y138.895 E190.57857
M204 S2000
G1 F2400 E189.77857
G0 F9000 X77.802 Y141.158
M204 S500
G1 F2400 E190.57857
G1 F1350 X133.838 Y197.194 E196.9044
M204 S2000
G1 F2400 E196.1044
G0 F9000 X131.574 Y197.194
M204 S500
G1 F2400 E196.9044
G1 F1350 X77.802 Y143.421 E202.9747
M204 S2000
G1 F2400 E202.1747
G0 F9000 X77.802 Y145.684
M204 S500
G1 F2400 E202.9747
G1 F1350 X129.311 Y197.194 E208.78954
M204 S2000
G1 F2400 E207.98954
G0 F9000 X127.049 Y197.194
M204 S500
G1 F2400 E208.78954
G1 F1350 X77.802 Y147.947 E214.34897
M204 S2000
G1 F2400 E213.54897
G0 F9000 X77.802 Y150.21
M204 S500
G1 F2400 E214.34897
G1 F1350 X124.786 Y197.194 E219.65293
M204 S2000
G1 F2400 E218.85293
G0 F9000 X122.523 Y197.193
M204 S500
G1 F2400 E219.65293
G1 F1350 X77.802 Y152.473 E224.70136
M204 S2000
G1 F2400 E223.90136
G0 F9000 X77.802 Y154.735
M204 S500
G1 F2400 E224.70136
G1 F1350 X120.26 Y197.193 E229.49439
M204 S2000
G1 F2400 E228.69439
G0 F9000 X117.997 Y197.193
M204 S500
G1 F2400 E229.49439
G1 F1350 X77.802 Y156.998 E234.03195
M204 S2000
G1 F2400 E233.23195
G0 F9000 X77.802 Y159.261
M204 S500
G1 F2400 E234.03195
G1 F1350 X115.734 Y197.193 E238.31404
M204 S2000
G1 F2400 E237.51404
G0 F9000 X113.471 Y197.192
M204 S500
G1 F2400 E238.31404
G1 F1350 X77.803 Y161.524 E242.34055
M204 S2000
G1 F2400 E241.54055
G0 F9000 X77.803 Y163.787
M204 S500
G1 F2400 E242.34055
G1 F1350 X111.208 Y197.192 E246.1116
M204 S2000
G1 F2400 E245.3116
G0 F9000 X108.945 Y197.192
M204 S500
G1 F2400 E246.1116
G1 F1350 X77.803 Y166.05 E249.62718
M204 S2000
G1 F2400 E248.82718
G0 F9000 X77.803 Y168.313
M204 S500
G1 F2400 E249.62718
G1 F1350 X106.683 Y197.192 E252.88734
M204 S2000
G1 F2400 E252.08734
G0 F9000 X104.419 Y197.192
M204 S500
G1 F2400 E252.88734
G1 F1350 X77.804 Y170.576 E255.89193
M204 S2000
G1 F2400 E255.09193
G0 F9000 X77.804 Y172.839
M204 S500
G1 F2400 E255.89193
G1 F1350 X102.156 Y197.192 E258.64105
M204 S2000
G1 F2400 E257.84105
G0 F9000 X99.894 Y197.192
M204 S500
G1 F2400 E258.64105
G1 F1350 X77.804 Y175.102 E261.13476
M204 S2000
G1 F2400 E260.33476
G0 F9000 X77.804 Y177.364
M204 S500
G1 F2400 E261.13476
G1 F1350 X97.631 Y197.192 E263.37306
M204 S2000
G1 F2400 E262.57306
G0 F9000 X95.352 Y197.175
M204 S500
G1 F2400 E263.37306
G1 F1350 X77.82 Y179.643 E265.35222
M204 S2000
G1 F2400 E264.55222
G0 F9000 X78.064 Y182.15
M204 S500
G1 F2400 E265.35222
G1 F1350 X92.849 Y196.936 E267.02134
M204 S2000
G1 F2400 E266.22134
G0 F9000 X89.786 Y196.135
M204 S500
G1 F2400 E267.02134
G1 F1350 X78.845 Y185.194 E268.25645
M204 S2000
G1 F2400 E267.45645
G0 F9000 X77.597 Y186.074
G0 X78.318 Y187.722
G0 X79.342 Y189.553
G0 X80.069 Y190.636
G0 X81.553 Y190.165
M204 S500
G1 F2400 E268.25645
G1 F1350 X84.829 Y193.441 E268.62628
M204 S2000
G1 F2400 E267.82628
G0 F9000 X83.898 Y194.574
G0 X82.519 Y193.405
G0 X81.208 Y192.052
G0 X80.028 Y190.577
G0 X79.456 Y189.756
G0 X78.258 Y187.6
G0 X77.588 Y186.048
G0 X77.104 Y184.565
G0 X76.669 Y182.727
G0 X76.41 Y180.791
G0 X76.34 Y179.314
G0 X76.374 Y119.666
G0 X76.49 Y118.356
G0 X76.777 Y116.73
G0 X77.051 Y115.533
G0 X77.922 Y113.141
G0 X78.81 Y111.333
G0 X79.972 Y109.497
G0 X81.586 Y107.53
G0 X82.659 Y106.483
G0 X84.427 Y105.025
G0 X85.621 Y105.986
M204 S500
G1 F2400 E268.62628
G1 F1350 X176.833 Y197.197 E278.92302
M204 S2000
G1 F2400 E278.12302
G0 F9000 X179.096 Y197.198
M204 S500
G1 F2400 E278.92302
G1 F1350 X87.017 Y105.118 E289.31775
M204 S2000
G1 F2400 E288.51775
G0 F9000 X88.527 Y104.366
M204 S500
G1 F2400 E289.31775
G1 F1350 X181.359 Y197.198 E299.79743
M204 S2000
G1 F2400 E298.99743
G0 F9000 X183.621 Y197.198
M204 S500
G1 F2400 E299.79743
G1 F1350 X90.148 Y103.725 E310.34947
M204 S2000
G1 F2400 E309.54947
G0 F9000 X91.92 Y103.233
M204 S500
G1 F2400 E310.34947
G1 F1350 X185.884 Y197.198 E320.95699
M204 S2000
G1 F2400 E320.15699
G0 F9000 X188.148 Y197.199
M204 S500
G1 F2400 E320.95699
G1 F1350 X93.864 Y102.915 E331.60059
M204 S2000
G1 F2400 E330.80059
G0 F9000 X96.016 Y102.804
M204 S500
G1 F2400 E331.60059
G1 F1350 X190.41 Y197.199 E342.25665
M204 S2000
G1 F2400 E341.45665
G0 F9000 X192.673 Y197.199
M204 S500
G1 F2400 E342.25665
G1 F1350 X98.279 Y102.804 E352.91272
M204 S2000
G1 F2400 E352.11272
G0 F9000 X100.541 Y102.804
M204 S500
G1 F2400 E352.91272
G1 F1350 X194.936 Y197.199 E363.56884
M204 S2000
G1 F2400 E362.76884
G0 F9000 X197.199 Y197.199
M204 S500
G1 F2400 E363.56884
G1 F1350 X102.804 Y102.804 E374.22497
M204 S2000
G1 F2400 E373.42497
G0 F9000 X105.067 Y102.804
M204 S500
G1 F2400 E374.22497
G1 F1350 X199.462 Y197.199 E384.88109
M204 S2000
G1 F2400 E384.08109
G0 F9000 X201.725 Y197.199
M204 S500
G1 F2400 E384.88109
G1 F1350 X107.33 Y102.804 E395.53721
M204 S2000
G1 F2400 E394.73721
G0 F9000 X109.592 Y102.804
M204 S500
G1 F2400 E395.53721
G1 F1350 X203.988 Y197.199 E406.19339
M204 S2000
G1 F2400 E405.39339
G0 F9000 X206.124 Y197.073
M204 S500
G1 F2400 E406.19339
G1 F1350 X111.855 Y102.804 E416.83529
M204 S2000
G1 F2400 E416.03529
G0 F9000 X114.118 Y102.804
M204 S500
G1 F2400 E416.83529
G1 F1350 X208.071 Y196.757 E427.44152
M204 S2000
G1 F2400 E426.64152
G0 F9000 X209.849 Y196.273
M204 S500
G1 F2400 E427.44152
G1 F1350 X116.381 Y102.804 E437.99305
M204 S2000
G1 F2400 E437.19305
G0 F9000 X118.643 Y102.804
M204 S500
G1 F2400 E437.99305
G1 F1350 X211.477 Y195.638 E448.47295
M204 S2000
G1 F2400 E447.67295
G0 F9000 X212.981 Y194.879
M204 S500
G1 F2400 E448.47295
G1 F1350 X120.906 Y102.804 E458.86718
M204 S2000
G1 F2400 E458.06718
G0 F9000 X123.169 Y102.804
M204 S500
G1 F2400 E458.86718
G1 F1350 X214.376 Y194.011 E469.16341
M204 S2000
G1 F2400 E468.36341
G0 F9000 X215.663 Y193.035
M204 S500
G1 F2400 E469.16341
G1 F1350 X125.432 Y102.804 E479.34947
M204 S2000
G1 F2400 E478.54947
G0 F9000 X127.694 Y102.804
M204 S500
G1 F2400 E479.34947
G1 F1350 X216.849 Y191.959 E489.41405
M204 S2000
G1 F2400 E488.61405
G0 F9000 X217.937 Y190.784
M204 S500
G1 F2400 E489.41405
G1 F1350 X129.957 Y102.804 E499.346
M204 S2000
G1 F2400 E498.546
G0 F9000 X132.22 Y102.804
M204 S500
G1 F2400 E499.346
G1 F1350 X218.929 Y189.513 E509.13446
M204 S2000
G1 F2400 E508.33446
G0 F9000 X219.803 Y188.124
M204 S500
G1 F2400 E509.13446
G1 F1350 X134.483 Y102.804 E518.76612
M204 S2000
G1 F2400 E517.96612
G0 F9000 X136.745 Y102.804
M204 S500
G1 F2400 E518.76612
G1 F1350 X220.567 Y186.626 E528.22867
M204 S2000
G1 F2400 E527.42867
G0 F9000 X221.211 Y185.007
M204 S500
G1 F2400 E528.22867
G1 F1350 X139.008 Y102.804 E537.50845
M204 S2000
G1 F2400 E536.70845
G0 F9000 X141.271 Y102.804
M204 S500
G1 F2400 E537.50845
G1 F1350 X221.716 Y183.25 E546.58984
M204 S2000
G1 F2400 E545.78984
G0 F9000 X222.073 Y181.343
M204 S500
G1 F2400 E546.58984
G1 F1350 X143.533 Y102.804 E555.45605
M204 S2000
G1 F2400 E554.65605
G0 F9000 X145.796 Y102.804
M204 S500
G1 F2400 E555.45605
G1 F1350 X222.198 Y179.206 E564.08097
M204 S2000
G1 F2400 E563.28097
G0 F9000 X222.2 Y176.945
M204 S500
G1 F2400 E564.08097
G1 F1350 X148.059 Y102.804 E572.45065
M204 S2000
G1 F2400 E571.65065
G0 F9000 X150.322 Y102.804
M204 S500
G1 F2400 E572.45065
G1 F1350 X222.2 Y174.682 E580.56486
M204 S2000
G1 F2400 E579.76486
G0 F9000 X222.199 Y172.419
M204 S500
G1 F2400 E580.56486
G1 F1350 X152.584 Y102.804 E588.4236
M204 S2000
G1 F2400 E587.6236
G0 F9000 X154.847 Y102.804
M204 S500
G1 F2400 E588.4236
G1 F1350 X222.199 Y170.156 E596.02688
M204 S2000
G1 F2400 E595.22688
G0 F9000 X222.198 Y167.893
M204 S500
G1 F2400 E596.02688
G1 F1350 X157.11 Y102.804 E603.37463
M204 S2000
G1 F2400 E602.57463
G0 F9000 X159.373 Y102.804
M204 S500
G1 F2400 E603.37463
G1 F1350 X222.198 Y165.63 E610.46691
M204 S2000
G1 F2400 E609.66691
G0 F9000 X222.198 Y163.367
M204 S500
G1 F2400 E610.46691
G1 F1350 X161.635 Y102.804 E617.30379
M204 S2000
G1 F2400 E616.50379
G0 F9000 X163.898 Y102.804
M204 S500
G1 F2400 E617.30379
G1 F1350 X222.198 Y161.104 E623.8852
M204 S2000
G1 F2400 E623.0852
G0 F9000 X222.198 Y158.841
M204 S500
G1 F2400 E623.8852
G1 F1350 X166.161 Y102.804 E630.21114
M204 S2000
G1 F2400 E629.41114
G0 F9000 X168.424 Y102.804
M204 S500
G1 F2400 E630.21114
G1 F1350 X222.197 Y156.577 E636.2815
M204 S2000
G1 F2400 E635.4815
G0 F9000 X222.197 Y154.315
M204 S500
G1 F2400 E636.2815
G1 F1350 X170.686 Y102.804 E642.09651
M204 S2000
G1 F2400 E641.29651
G0 F9000 X172.949 Y102.804
M204 S500
G1 F2400 E642.09651
G1 F1350 X222.196 Y152.051 E647.65593
M204 S2000
G1 F2400 E646.85593
G0 F9000 X222.196 Y149.789
M204 S500
G1 F2400 E647.65593
G1 F1350 X175.212 Y102.804 E652.95995
M204 S2000
G1 F2400 E652.15995
G0 F9000 X177.475 Y102.804
M204 S500
G1 F2400 E652.95995
G1 F1350 X222.196 Y147.526 E658.0085
M204 S2000
G1 F2400 E657.2085
G0 F9000 X222.196 Y145.262
M204 S500
G1 F2400 E658.0085
G1 F1350 X179.737 Y102.804 E662.80158
M204 S2000
G1 F2400 E662.00158
G0 F9000 X182 Y102.804
M204 S500
G1 F2400 E662.80158
G1 F1350 X222.196 Y143 E667.33925
M204 S2000
G1 F2400 E666.53925
G0 F9000 X222.195 Y140.736
M204 S500
G1 F2400 E667.33925
G1 F1350 X184.263 Y102.804 E671.62134
M204 S2000
G1 F2400 E670.82134
G0 F9000 X186.526 Y102.804
M204 S500
