;FLAVOR:Marlin
;TIME:4403
;Filament used: 3.39212m
;Layer height: 0.2
;MINX:81
;MINY:106
;MINZ:0.2
;MAXX:219
;MAXY:194
;MAXZ:2.2
;TARGET_MACHINE.NAME:Creality Ender-3 S1 Plus
;Generated with Cura_SteamEngine 5.11.0
; Ender 3 S1 Plus Start G-code
; M413 S0 ; Disable power loss recovery
G92 E0 ; Reset Extruder

; Prep surfaces before auto home for better accuracy
M140 S60
M104 S200

G28 ; Home all axes
G1 Z10.0 F3000 ; Move Z Axis up little to prevent scratching of Heat Bed
G1 X0 Y0

M190 S60
M109 S200

G1 X0.1 Y20 Z0.3 F5000.0 ; Move to start position
G1 X0.1 Y200.0 Z0.3 F1500.0 E15 ; Draw the first line
G1 X0.4 Y200.0 Z0.3 F5000.0 ; Move to side a little
G1 X0.4 Y20 Z0.3 F1500.0 E30 ; Draw the second line
G92 E0 ; Reset Extruder
G1 Z2.0 F3000 ; Move Z Axis up little to prevent scratching of Heat Bed
G1 X5 Y20 Z0.3 F5000.0 ; Move over to prevent blob squish

M82 ;absolute extrusion mode
G92 E0
G92 E0
G1 F2400 E-0.8
;LAYER_COUNT:11
;LAYER:0
M107
M204 S2000
G0 F7500 X86.549 Y109.276 Z0.2
M204 S500
;TYPE:SKIRT
G1 F2400 E0
G1 F1500 X87.119 Y108.841 E0.02385
G1 X87.771 Y108.393 E0.05016
G1 X88.355 Y108.036 E0.07293
G1 X88.971 Y107.705 E0.09618
G1 X89.445 Y107.471 E0.11377
G1 X90.399 Y107.053 E0.14841
G1 X90.943 Y106.848 E0.16774
G1 X92.125 Y106.475 E0.20897
G1 X92.765 Y106.327 E0.23082
G1 X93.304 Y106.231 E0.24903
G1 X93.425 Y106.201 E0.25317
G1 X94.039 Y106.114 E0.2738
G1 X94.627 Y106.058 E0.29344
G1 X95.409 Y106.013 E0.3195
G1 X96.251 Y106 E0.3475
G1 X203.634 Y106.001 E3.91908
G1 X205.062 Y106.035 E3.96659
G1 X206.448 Y106.193 E4.01298
G1 X207.064 Y106.305 E4.03381
G1 X208.038 Y106.529 E4.06705
G1 X208.864 Y106.771 E4.09568
G1 X209.915 Y107.166 E4.13302
G1 X210.425 Y107.396 E4.15163
G1 X211.172 Y107.768 E4.17938
G1 X211.556 Y107.98 E4.19397
G1 X211.917 Y108.193 E4.20791
G1 X212.547 Y108.609 E4.23302
G1 X213.247 Y109.116 E4.26177
G1 X213.788 Y109.556 E4.28496
G1 X214.343 Y110.057 E4.30983
G1 X214.784 Y110.497 E4.33055
G1 X215.138 Y110.872 E4.3477
G1 X215.737 Y111.565 E4.37817
G1 X216.261 Y112.263 E4.4072
G1 X216.648 Y112.836 E4.4302
G1 X216.957 Y113.342 E4.44992
G1 X217.296 Y113.971 E4.47368
G1 X217.527 Y114.437 E4.49098
G1 X217.94 Y115.38 E4.52522
G1 X218.15 Y115.933 E4.5449
G1 X218.52 Y117.114 E4.58606
G1 X218.719 Y117.993 E4.61603
G1 X218.779 Y118.372 E4.6288
G1 X218.81 Y118.492 E4.63292
G1 X218.886 Y119.041 E4.65135
G1 X218.955 Y119.786 E4.67624
G1 X218.992 Y120.676 E4.70587
G1 X219 Y121.265 E4.72546
G1 X218.999 Y178.582 E6.63183
G1 X218.987 Y179.485 E6.66187
G1 X218.96 Y180.129 E6.6833
G1 X218.803 Y181.472 E6.72828
G1 X218.705 Y182.01 E6.74646
G1 X218.477 Y183 E6.78025
G1 X218.373 Y183.365 E6.79288
G1 X218.041 Y184.355 E6.82761
G1 X217.882 Y184.759 E6.84205
G1 X217.46 Y185.702 E6.87641
G1 X217.208 Y186.197 E6.89488
G1 X216.726 Y187.049 E6.92744
G1 X216.36 Y187.597 E6.94936
G1 X215.807 Y188.351 E6.98046
G1 X215.158 Y189.122 E7.01398
G1 X214.701 Y189.597 E7.0359
G1 X214.274 Y190.01 E7.05566
G1 X213.764 Y190.466 E7.07841
G1 X213.233 Y190.899 E7.1012
G1 X212.848 Y191.19 E7.11725
G1 X212.106 Y191.691 E7.14703
G1 X211.109 Y192.27 E7.18538
G1 X210.599 Y192.528 E7.20439
G1 X210.163 Y192.727 E7.22033
G1 X209.64 Y192.942 E7.23914
G1 X208.799 Y193.246 E7.26888
G1 X208.199 Y193.431 E7.28976
G1 X207.301 Y193.657 E7.32056
G1 X206.62 Y193.78 E7.34358
G1 X206.48 Y193.814 E7.34837
G1 X205.771 Y193.909 E7.37216
G1 X205.017 Y193.968 E7.39732
G1 X204.591 Y193.987 E7.4115
G1 X203.749 Y194 E7.43951
G1 X96.381 Y193.999 E11.01058
G1 X95.508 Y193.987 E11.03962
G1 X94.829 Y193.957 E11.06223
G1 X93.539 Y193.805 E11.10543
G1 X92.951 Y193.699 E11.1253
G1 X91.949 Y193.468 E11.1595
G1 X91.164 Y193.238 E11.18671
G1 X90.085 Y192.833 E11.22504
G1 X89.603 Y192.618 E11.2426
G1 X89.09 Y192.367 E11.26159
G1 X88.445 Y192.022 E11.28592
G1 X87.456 Y191.393 E11.3249
G1 X86.703 Y190.846 E11.35586
G1 X85.804 Y190.09 E11.39493
G1 X85.146 Y189.439 E11.42571
G1 X84.74 Y189.002 E11.44555
G1 X84.436 Y188.648 E11.46107
G1 X84.09 Y188.214 E11.47953
G1 X83.424 Y187.266 E11.51807
G1 X83.179 Y186.871 E11.53353
G1 X82.687 Y185.991 E11.56706
G1 X82.391 Y185.397 E11.58913
G1 X81.963 Y184.415 E11.62476
G1 X81.74 Y183.765 E11.64762
G1 X81.533 Y183.067 E11.67183
G1 X81.356 Y182.356 E11.6962
G1 X81.146 Y181.134 E11.73744
G1 X81.093 Y180.668 E11.75304
G1 X81.027 Y179.662 E11.78657
G1 X81.005 Y178.395 E11.82872
G1 X81 Y121.532 E13.71999
G1 X81.013 Y120.507 E13.75409
G1 X81.043 Y119.823 E13.77686
G1 X81.195 Y118.539 E13.81986
G1 X81.301 Y117.951 E13.83973
G1 X81.532 Y116.949 E13.87393
G1 X81.762 Y116.164 E13.90114
G1 X82.167 Y115.085 E13.93947
G1 X82.484 Y114.39 E13.96488
G1 X82.808 Y113.753 E13.98865
G1 X82.962 Y113.476 E13.99919
G1 X83.423 Y112.724 E14.02853
G1 X83.914 Y112.028 E14.05686
G1 X84.186 Y111.664 E14.07197
G1 X84.646 Y111.108 E14.09597
G1 X85.056 Y110.659 E14.1162
G1 X85.499 Y110.214 E14.13708
G1 X85.871 Y109.864 E14.15407
G1 X86.549 Y109.276 E14.18392
M204 S2000
G0 F7500 X86.792 Y109.594
M204 S500
G1 F1500 X87.346 Y109.171 E14.2071
G1 X87.998 Y108.723 E14.23341
G1 X88.545 Y108.388 E14.25475
G1 X89.149 Y108.063 E14.27756
G1 X89.605 Y107.837 E14.29449
G1 X90.541 Y107.427 E14.32847
G1 X91.064 Y107.229 E14.34707
G1 X92.216 Y106.865 E14.38726
G1 X92.835 Y106.721 E14.40839
G1 X93.393 Y106.622 E14.42724
G1 X93.481 Y106.597 E14.43029
G1 X94.077 Y106.512 E14.45031
G1 X94.65 Y106.457 E14.46946
G1 X95.415 Y106.413 E14.49494
G1 X96.251 Y106.4 E14.52275
G1 X203.624 Y106.401 E18.09399
G1 X205.052 Y106.435 E18.1415
G1 X206.377 Y106.587 E18.18586
G1 X206.975 Y106.695 E18.20607
G1 X207.926 Y106.913 E18.23852
G1 X208.724 Y107.146 E18.26617
G1 X209.751 Y107.531 E18.30265
G1 X210.247 Y107.754 E18.32074
G1 X210.979 Y108.118 E18.34793
G1 X211.353 Y108.324 E18.36213
G1 X211.697 Y108.527 E18.37541
G1 X212.312 Y108.933 E18.39993
G1 X213.012 Y109.44 E18.42867
G1 X213.52 Y109.853 E18.45045
G1 X214.06 Y110.34 E18.47463
G1 X214.493 Y110.772 E18.49498
G1 X214.835 Y111.134 E18.51154
G1 X215.434 Y111.827 E18.54201
G1 X215.93 Y112.487 E18.56947
G1 X216.307 Y113.044 E18.59184
G1 X216.605 Y113.532 E18.61085
G1 X216.938 Y114.149 E18.63417
G1 X217.161 Y114.598 E18.65085
G1 X217.566 Y115.522 E18.6844
G1 X217.768 Y116.053 E18.7033
G1 X218.138 Y117.234 E18.74446
G1 X218.324 Y118.056 E18.77249
G1 X218.388 Y118.457 E18.786
G1 X218.414 Y118.547 E18.78912
G1 X218.488 Y119.078 E18.80695
G1 X218.555 Y119.803 E18.83116
G1 X218.592 Y120.681 E18.86039
G1 X218.6 Y121.265 E18.87982
G1 X218.599 Y178.577 E20.78602
G1 X218.587 Y179.468 E20.81566
G1 X218.56 Y180.112 E20.8371
G1 X218.409 Y181.401 E20.88026
G1 X218.315 Y181.92 E20.89781
G1 X218.092 Y182.891 E20.93094
G1 X217.994 Y183.238 E20.94294
G1 X217.669 Y184.209 E20.97699
G1 X217.517 Y184.596 E20.99082
G1 X217.103 Y185.521 E21.02453
G1 X216.86 Y186 E21.04239
G1 X216.393 Y186.827 E21.07398
G1 X216.037 Y187.36 E21.0953
G1 X215.484 Y188.114 E21.1264
G1 X214.852 Y188.864 E21.15902
G1 X214.423 Y189.31 E21.1796
G1 X214.008 Y189.712 E21.19882
G1 X213.511 Y190.156 E21.22099
G1 X212.991 Y190.58 E21.2433
G1 X212.624 Y190.858 E21.25861
G1 X211.882 Y191.359 E21.28839
G1 X210.928 Y191.913 E21.32508
G1 X210.433 Y192.164 E21.34354
G1 X210.01 Y192.357 E21.35901
G1 X209.504 Y192.566 E21.37722
G1 X208.681 Y192.864 E21.40633
G1 X208.101 Y193.043 E21.42652
G1 X207.23 Y193.263 E21.4564
G1 X206.532 Y193.389 E21.47999
G1 X206.427 Y193.418 E21.48361
G1 X205.74 Y193.51 E21.50666
G1 X204.999 Y193.568 E21.53139
G1 X204.585 Y193.587 E21.54517
G1 X203.749 Y193.6 E21.57298
G1 X96.387 Y193.599 E25.14385
G1 X95.526 Y193.587 E25.17249
G1 X94.847 Y193.557 E25.1951
G1 X93.61 Y193.411 E25.23653
G1 X93.041 Y193.309 E25.25575
G1 X92.061 Y193.084 E25.2892
G1 X91.276 Y192.854 E25.3164
G1 X90.247 Y192.467 E25.35297
G1 X89.779 Y192.259 E25.37
G1 X89.278 Y192.014 E25.38855
G1 X88.66 Y191.684 E25.41185
G1 X87.671 Y191.055 E25.45084
G1 X86.938 Y190.522 E25.48098
G1 X86.085 Y189.805 E25.51804
G1 X85.439 Y189.167 E25.54824
G1 X85.043 Y188.741 E25.56759
G1 X84.748 Y188.398 E25.58263
G1 X84.417 Y187.984 E25.60026
G1 X83.764 Y187.055 E25.63803
G1 X83.528 Y186.676 E25.65288
G1 X83.045 Y185.813 E25.68577
G1 X82.758 Y185.237 E25.70718
G1 X82.33 Y184.255 E25.74281
G1 X82.123 Y183.651 E25.76404
G1 X81.921 Y182.97 E25.78767
G1 X81.744 Y182.259 E25.81204
G1 X81.543 Y181.089 E25.85152
G1 X81.492 Y180.642 E25.86649
G1 X81.427 Y179.655 E25.89939
G1 X81.405 Y178.395 E25.9413
G1 X81.4 Y121.537 E27.8324
G1 X81.413 Y120.525 E27.86607
G1 X81.443 Y119.841 E27.88884
G1 X81.589 Y118.61 E27.93007
G1 X81.691 Y118.041 E27.9493
G1 X81.916 Y117.061 E27.98274
G1 X82.146 Y116.276 E28.00995
G1 X82.531 Y115.251 E28.04636
G1 X82.848 Y114.556 E28.07177
G1 X83.158 Y113.947 E28.0945
G1 X83.303 Y113.685 E28.10446
G1 X83.75 Y112.954 E28.13296
G1 X84.234 Y112.267 E28.16091
G1 X84.494 Y111.919 E28.17536
G1 X84.942 Y111.377 E28.19874
G1 X85.339 Y110.941 E28.21836
G1 X85.773 Y110.505 E28.23882
G1 X86.133 Y110.166 E28.25526
G1 X86.792 Y109.594 E28.28429
M204 S2000
G0 F7500 X87.035 Y109.912
M204 S500
G1 F1500 X87.573 Y109.501 E28.3068
G1 X88.225 Y109.053 E28.33312
G1 X88.754 Y108.729 E28.35375
G1 X89.327 Y108.421 E28.37539
G1 X89.765 Y108.203 E28.39166
G1 X90.683 Y107.801 E28.42499
G1 X91.185 Y107.61 E28.44285
G1 X92.307 Y107.255 E28.482
G1 X92.911 Y107.114 E28.50263
G1 X93.54 Y107.004 E28.52386
G1 X93.538 Y106.993 E28.52424
G1 X94.116 Y106.91 E28.54366
G1 X94.673 Y106.856 E28.56227
G1 X95.421 Y106.813 E28.58719
G1 X96.251 Y106.8 E28.6148
G1 X203.614 Y106.801 E32.18571
G1 X205.042 Y106.835 E32.23322
G1 X206.306 Y106.981 E32.27554
G1 X206.886 Y107.085 E32.29513
G1 X207.814 Y107.297 E32.32679
G1 X208.612 Y107.53 E32.35444
G1 X209.587 Y107.896 E32.38908
G1 X210.069 Y108.112 E32.40665
G1 X210.787 Y108.469 E32.43332
G1 X211.15 Y108.668 E32.44709
G1 X211.477 Y108.861 E32.45972
G1 X212.077 Y109.257 E32.48363
G1 X212.777 Y109.764 E32.51238
G1 X213.252 Y110.15 E32.53273
G1 X213.777 Y110.623 E32.55624
G1 X214.202 Y111.047 E32.5762
G1 X214.532 Y111.396 E32.59218
G1 X215.131 Y112.089 E32.62264
G1 X215.599 Y112.711 E32.64853
G1 X215.966 Y113.253 E32.67031
G1 X216.253 Y113.722 E32.68859
G1 X216.58 Y114.327 E32.71147
G1 X216.795 Y114.759 E32.72752
G1 X217.192 Y115.665 E32.76042
G1 X217.386 Y116.173 E32.7785
G1 X217.756 Y117.354 E32.81967
G1 X217.929 Y118.119 E32.84575
G1 X218.007 Y118.605 E32.86212
G1 X218.018 Y118.603 E32.8625
G1 X218.09 Y119.115 E32.87969
G1 X218.155 Y119.82 E32.90324
G1 X218.192 Y120.687 E32.9321
G1 X218.2 Y121.265 E32.95133
G1 X218.199 Y178.572 E34.85737
G1 X218.187 Y179.451 E34.88661
G1 X218.16 Y180.095 E34.90804
G1 X218.015 Y181.33 E34.9494
G1 X217.925 Y181.831 E34.96633
G1 X217.707 Y182.783 E34.99882
G1 X217.615 Y183.111 E35.01015
G1 X217.296 Y184.064 E35.04357
G1 X217.152 Y184.433 E35.05675
G1 X216.746 Y185.34 E35.0898
G1 X216.503 Y185.819 E35.10766
G1 X216.06 Y186.605 E35.13767
G1 X215.714 Y187.123 E35.15839
G1 X215.161 Y187.877 E35.18949
G1 X214.546 Y188.606 E35.22121
G1 X214.145 Y189.023 E35.24045
G1 X213.741 Y189.414 E35.25915
G1 X213.258 Y189.846 E35.28071
G1 X212.749 Y190.261 E35.30255
G1 X212.4 Y190.526 E35.31712
G1 X211.658 Y191.027 E35.3469
G1 X210.747 Y191.556 E35.38194
G1 X210.267 Y191.8 E35.39985
G1 X209.857 Y191.987 E35.41484
G1 X209.367 Y192.19 E35.43248
G1 X208.563 Y192.482 E35.46093
G1 X208.003 Y192.655 E35.48042
G1 X207.132 Y192.875 E35.5103
G1 X206.372 Y193.011 E35.53598
G1 X206.374 Y193.022 E35.53635
G1 X205.709 Y193.111 E35.55867
G1 X204.98 Y193.168 E35.58299
G1 X204.579 Y193.187 E35.59634
G1 X203.749 Y193.2 E35.62395
G1 X96.393 Y193.199 E39.19462
G1 X95.544 Y193.187 E39.22287
G1 X94.865 Y193.157 E39.24547
G1 X93.68 Y193.017 E39.28516
G1 X93.13 Y192.919 E39.30374
G1 X92.173 Y192.7 E39.33639
G1 X91.388 Y192.47 E39.3636
G1 X90.41 Y192.102 E39.39835
G1 X89.954 Y191.899 E39.41496
G1 X89.466 Y191.661 E39.43301
G1 X88.848 Y191.331 E39.45632
G1 X87.906 Y190.731 E39.49346
G1 X87.173 Y190.198 E39.52361
G1 X86.366 Y189.52 E39.55866
G1 X85.732 Y188.894 E39.5883
G1 X85.346 Y188.48 E39.60712
G1 X85.06 Y188.148 E39.6217
G1 X84.744 Y187.754 E39.6385
G1 X84.103 Y186.843 E39.67555
G1 X83.877 Y186.481 E39.68974
G1 X83.403 Y185.634 E39.72202
G1 X83.125 Y185.077 E39.74273
G1 X82.697 Y184.095 E39.77836
G1 X82.506 Y183.537 E39.79797
G1 X82.309 Y182.873 E39.82101
G1 X82.132 Y182.162 E39.84538
G1 X81.94 Y181.044 E39.88311
G1 X81.891 Y180.616 E39.89744
G1 X81.827 Y179.648 E39.9297
G1 X81.805 Y178.395 E39.97138
G1 X81.8 Y121.542 E41.86232
G1 X81.813 Y120.543 E41.89555
G1 X81.843 Y119.859 E41.91832
G1 X81.983 Y118.68 E41.95781
G1 X82.081 Y118.13 E41.97639
G1 X82.3 Y117.173 E42.00905
G1 X82.53 Y116.388 E42.03625
G1 X82.895 Y115.417 E42.07075
G1 X83.205 Y114.737 E42.09561
G1 X83.508 Y114.14 E42.11788
G1 X83.644 Y113.893 E42.12726
G1 X84.077 Y113.184 E42.15489
G1 X84.555 Y112.506 E42.18248
G1 X84.802 Y112.174 E42.19624
G1 X85.238 Y111.646 E42.21902
G1 X85.623 Y111.223 E42.23804
G1 X86.048 Y110.796 E42.25808
G1 X86.395 Y110.468 E42.27396
G1 X87.035 Y109.912 E42.30216
M204 S2000
G1 F2400 E41.50216
;MESH:frontplate.stl
G0 F7500 X96.025 Y122.884
G0 X98.057 Y126.454
M204 S500
;TYPE:WALL-INNER
G1 F2400 E42.30216
G1 F1500 X97.436 Y126.379 E42.32296
G1 X96.912 Y126.15 E42.34198
G1 X96.46 Y125.827 E42.36046
G1 X96.125 Y125.387 E42.37885
G1 X95.887 Y124.89 E42.39718
G1 X95.788 Y124.241 E42.41902
G1 X95.887 Y123.585 E42.44108
G1 X96.175 Y122.989 E42.4631
G1 X96.621 Y122.517 E42.4847
G1 X97.106 Y122.226 E42.50351
G1 X97.563 Y122.086 E42.51941
G1 X98.06 Y122.02 E42.53608
G1 X98.604 Y122.114 E42.55444
G1 X99.111 Y122.314 E42.57257
G1 X99.496 Y122.612 E42.58876
G1 X99.865 Y123.022 E42.60711
G1 X100.147 Y123.643 E42.62979
G1 X100.212 Y124.243 E42.64987
G1 X100.164 Y124.697 E42.66505
G1 X100.03 Y125.157 E42.68099
G1 X99.742 Y125.594 E42.69839
G1 X99.434 Y125.921 E42.71333
G1 X99.023 Y126.194 E42.72975
G1 X98.604 Y126.362 E42.74476
G1 X98.057 Y126.454 E42.76321
M204 S2000
G1 F2400 E41.96321
G0 F7500 X98.633 Y126.538
G0 X103.769 Y135.3
G0 X102.926 Y136.728
G0 X102.802 Y137.603
G0 X102.971 Y138.355
G0 X103.184 Y138.745
G0 X103.539 Y139.147
G0 X103.899 Y139.407
G0 X105.752 Y139.955
G0 X105.157 Y139.84
M204 S500
G1 F2400 E42.76321
G1 F1500 X104.699 Y139.834 E42.77844
G1 X104.252 Y139.729 E42.79372
G1 X103.816 Y139.538 E42.80955
G1 X103.43 Y139.251 E42.82555
G1 X103.061 Y138.83 E42.84417
G1 X102.832 Y138.416 E42.8599
G1 X102.692 Y137.944 E42.87628
G1 X102.645 Y137.608 E42.88756
G1 X102.671 Y137.151 E42.90278
G1 X102.787 Y136.674 E42.91911
G1 X103.055 Y136.175 E42.93795
G1 X103.373 Y135.798 E42.95436
G1 X103.66 Y135.565 E42.96665
G1 X104.169 Y135.273 E42.98617
G1 X104.789 Y135.157 E43.00715
G1 X105.293 Y135.164 E43.02391
G1 X105.76 Y135.27 E43.03984
G1 X106.197 Y135.476 E43.05591
G1 X106.546 Y135.73 E43.07026
G1 X106.939 Y136.166 E43.08979
G1 X107.169 Y136.588 E43.10577
G1 X107.311 Y137.072 E43.12255
G1 X107.351 Y137.438 E43.13479
G1 X107.314 Y137.888 E43.14981
G1 X107.215 Y138.327 E43.16478
G1 X106.944 Y138.823 E43.18358
G1 X106.647 Y139.177 E43.19895
G1 X106.406 Y139.38 E43.20943
G1 F1421.8 X106.19 Y139.541 E43.21888
G1 F1165 X105.968 Y139.752 E43.232
G1 F1027.4 X105.841 Y139.807 E43.23872
G1 F1087 X105.746 Y139.801 E43.24309
G1 F1304.3 X105.157 Y139.84 E43.26566
M204 S2000
G1 F2400 E42.46566
G0 F7500 X105.752 Y139.955
G0 X107.093 Y138.926
G0 X119.547 Y133.755
G0 X120.635 Y133.7
M204 S500
G1 F2400 E43.26566
G1 F1500 X120.197 Y133.687 E43.28024
G1 X119.873 Y133.642 E43.29112
G1 X119.521 Y133.56 E43.30314
G1 X119.202 Y133.448 E43.31438
G1 X118.883 Y133.302 E43.32605
G1 X118.489 Y133.07 E43.34126
G1 X118.213 Y132.85 E43.353
G1 X117.88 Y132.535 E43.36825
G1 X117.538 Y132.07 E43.38744
G1 X117.352 Y131.731 E43.40031
G1 X117.202 Y131.374 E43.41318
G1 X117.11 Y131.074 E43.42362
G1 X117.029 Y130.685 E43.43684
G1 X117 Y130.237 E43.45177
G1 X117.019 Y129.778 E43.46705
G1 X117.109 Y129.331 E43.48221
G1 X117.218 Y128.984 E43.49431
G1 X117.352 Y128.668 E43.50573
G1 X117.54 Y128.31 E43.51918
G1 X117.897 Y127.854 E43.53844
G1 X118.267 Y127.501 E43.55545
G1 X118.615 Y127.248 E43.56976
G1 X118.871 Y127.1 E43.57959
G1 X119.338 Y126.894 E43.59657
